X:1
T:What, Never Thirst Again?
T:May Agnew Stephens, 1903
T:What, Never Thirst Again?
T:Public Domain
T:Public Domain
T:Public Domain
C:May Agnew Stephens, 1903
Z:Public Domain
%%score ( 1 2 ) ( 3 4 )
L:1/8
M:4/4
K:Eb
V:1 treble 
V:2 treble 
V:3 bass 
V:4 bass 
V:1
 ([EG][FA]) | [GB]2 [Ge]2 [Ad]2 [Ac]2 | [GB]3 [FA] [EG]3 [EG] | [EF]2 [EG]2 [EA]2 ([EG][DF]) | %4
w: 1.~There *|flows from Cal- va-|ry a stream For|ev- ery sin- ner’s *|
w: 2.~Earth’s *|fount- ains fair but|mock our souls, Like|des- ert phan- toms *|
w: 3.~This *|stream from Cal- va-|ry still flows, To|bless and cleanse and *|
w: 4.~Oh, *|bless- èd stream of|pure de- light! Oh,|balm for ev- ery *|
 [EG]6 ([EG][FA]) | [GB]2 [Ge]2 [Ad]2 [Ac]2 | [GB]3 [FA] [EG]3 [EG] | [DF]2 (Bc) [FB]2 [E=A]2 | %8
w: pain, And *|he that drink- eth,|Je- sus said, Shall|nev- er * thirst a-|
w: lure, And *|they that drink, the|faint- er grow, The|keen- er * thirst en-|
w: heal, And *|he that drink- eth,|Je- sus said, New|life and * rest shall|
w: pain! To *|thee I haste, for|Je- sus said, I’ll|nev- er * thirst a-|
 (DEFG A2) ||"^Refrain" ([EG][FA]) | [GB][GB][GB][GB] [GB]2 ([Ge][Bd]) | %11
w: |||
w: |||
w: What! * * * *|er *|thirst a- gain? No, nev- er *|
w: |||
 [Ac][EA][EA][EA] [EA]2 ([FA][EG]) | [DF][DF][DF][DF] [DF]2 (fe) | %13
w: ||
w: ||
w: thirst a- gain; What! nev- er *|thirst a- gain? No, nev- er *|
w: ||
 [Fd][FB][DB][Dc] ([EB][DA][EG])[DF] | [EG]3 [EG] [DA] [FA]3 | [GB]2 [Ec]2 [CF]2 [DB]2 | %16
w: |||
w: |||
w: a- gain, For he that * * drink-|eth, Je- sus said,|Shall nev- er, nev-|
w: |||
 E[DF][EG][EA] [EG]2 [DF]2 | E6 |] %18
w: ||
w: ||
w: er thirst a- gain. * *||
w: ||
V:2
 x2 | x8 | x8 | x8 | x8 | x8 | x8 | x2 F2 x4 | B6 || x2 | x8 | x8 | x6 F2 | x8 | x8 | x8 | E x7 | %17
w: |||||||gain.||||||||||
w: |||||||dure.||||||||||
w: |||||||feel.|nev-||||thirst|||||
w: |||||||gain.||||||||||
 E6 |] %18
w: |
w: |
w: |
w: |
V:3
 [E,B,]2 | [E,E]2 [E,B,]2 [E,C]2 [E,D]2 | (E2 B,)[D,B,] [E,B,]3 [E,B,] | [A,C]2 [G,C]2 [F,C]2 B,2 | %4
w: ~|~ ~ ~ ~|~ * ~ ~ ~|~ ~ ~ ~|
 [E,B,]6 [E,B,]2 | [E,E]2 [E,B,]2 [E,C]2 [E,D]2 | (E2 B,)[D,B,] [E,B,]3 [E,B,] | %7
w: ~ ~|~ ~ ~ ~|~ * ~ ~ ~|
 [F,B,]2 (DE) [F,D]2 [F,C]2 | D,E,F,G, A,2 || z2 | z6 ([E,B,][G,E]) | %11
w: Shall nev- * er thirst|gain. * * * *|||
 [A,E][A,C][A,C][A,C] [A,C]2 z2 | z6 ([B,,D][C,=A,]) | [B,,B,][D,B,][F,B,][A,B,] (G,F,E,)[B,,B,] | %14
w: |||
 [E,B,]3 [E,B,] [F,B,] [B,,D]3 | [E,B,]2 A,2 [A,C]2 [A,B,]2 | %16
w: ||
 [G,B,][F,A,][E,B,][A,,C] [B,,B,]2 [B,,A,]2 | [E,G,]6 |] %18
w: ||
V:4
 x2 | x8 | E,3 x5 | x6 B,2 | x8 | x8 | E,3 x5 | x2 F,2 x4 | B,6 || x2 | x8 | x8 | x8 | x4 B,3 x | %14
w: ||~|~|||~|a-|||||||
 x8 | x2 A,2 x4 | x8 | x6 |] %18
w: ||||

